images/footer_icon.svg

<svg width="60" height="61" viewBox="0 0 60 61" fill="none" xmlns="http://www.w3.org/2000/svg">
<path fill-rule="evenodd" clip-rule="evenodd" d="M28.022 0.0447214L26.5292 0.134165V60.8658L28.022 60.9552C28.5984 60.985 29.16 61 29.7069 61C30.2537 61 30.8301 60.985 31.3917 60.9552L32.8844 60.8658V0.134165L31.3917 0.0447214C30.2537 -0.0149071 29.1748 -0.0149071 28.022 0.0447214ZM42.9785 30.8268C42.8603 30.5287 42.8603 30.2008 42.9785 29.9026L51.0185 8.80901L50.2204 8.07856C49.3484 7.27358 48.4173 6.49841 47.4567 5.79777L45.7866 4.57538L37.0224 27.592C36.3425 29.366 36.3425 31.3337 37.0076 33.1077L45.757 56.4224L47.4419 55.2001C48.4026 54.4994 49.3337 53.7243 50.2056 52.9193L50.989 52.1888L42.9785 30.8268ZM9.91702 27.1308L2.29081 17.3369L1.31537 20.0351C0.842426 21.3469 0.458162 22.7034 0.162573 24.0898L0 24.8203L4.28603 30.3061C4.43382 30.4849 4.43382 30.7533 4.28603 30.9322L0.0295589 36.2987L0.192132 37.0441C0.48772 38.4155 0.886765 39.7572 1.35971 41.0541L2.33514 43.7076L9.90216 34.1521C11.5575 32.0651 11.5575 29.2476 9.91702 27.1308ZM59.4278 24.7448L55.1566 30.1412C55.0088 30.335 55.0088 30.5884 55.1419 30.7673L59.4131 36.2382L59.2505 36.9687C58.9549 38.3401 58.5559 39.6966 58.083 41.0085L57.1075 43.6917L49.5108 33.9425C47.8704 31.8257 47.8704 28.9933 49.5404 26.8915L57.137 17.3061L58.1125 19.9745C58.5855 21.2714 58.9697 22.628 59.2652 23.9995L59.4278 24.7448ZM11.9712 5.79777L13.6561 4.57538L22.4351 27.9796C23.1001 29.7535 23.1001 31.7213 22.4202 33.4952L13.6856 56.4373L12.0155 55.2149C11.055 54.5143 10.1238 53.7391 9.25182 52.9341L8.45373 52.2037L16.4642 31.1847C16.5824 30.8865 16.5824 30.5585 16.4642 30.2604L8.42418 8.82392L9.20748 8.07856C10.0795 7.27358 11.0106 6.49841 11.9712 5.79777Z" fill="#61D7AC"/>
</svg>

<svg width="60" height="61" fill="none" xmlns="http://www.w3.org/2000/svg"><path fill-rule="evenodd" clip-rule="evenodd" d="M28.022.045l-1.493.09v60.73l1.493.09a32.214 32.214 0 003.37 0l1.492-.09V.136l-1.492-.09a31.76 31.76 0 00-3.37 0zm14.956 30.782a1.249 1.249 0 010-.924l8.04-21.094-.798-.73a31.297 31.297 0 00-2.763-2.281l-1.67-1.223-8.765 23.017a7.792 7.792 0 00-.014 5.516l8.749 23.314 1.685-1.222a31.44 31.44 0 002.764-2.28l.783-.731-8.01-21.362zM9.917 27.13l-7.626-9.794-.976 2.698A31.047 31.047 0 00.163 24.09L0 24.82l4.286 5.486a.497.497 0 010 .626L.03 36.3l.162.745a30.46 30.46 0 001.168 4.01l.975 2.654 7.567-9.556c1.655-2.087 1.655-4.904.015-7.021zm49.51-2.386l-4.27 5.396a.518.518 0 00-.015.626l4.271 5.471-.162.73a31.581 31.581 0 01-1.168 4.04l-.975 2.684-7.597-9.75c-1.64-2.116-1.64-4.949.03-7.05l7.596-9.586.975 2.668A30.599 30.599 0 0159.265 24l.163.745zM11.972 5.798l1.685-1.223 8.78 23.405a7.792 7.792 0 01-.016 5.515l-8.734 22.942-1.67-1.222a31.294 31.294 0 01-2.764-2.28l-.798-.731 8.01-21.02a1.249 1.249 0 000-.924L8.424 8.824l.783-.745a31.3 31.3 0 012.764-2.281z" fill="#61D7AC"/></svg>
